Sources/FrostedUI/Resources/Icons.xcassets/gear16.imageset/gear-16.svg

<svg width="16" height="16" viewBox="0 0 16 16" fill="none" xmlns="http://www.w3.org/2000/svg" data-fui-icon="true">
  <path
    d="M8.49707 1C9.46196 1.00011 10.2889 1.6926 10.457 2.64355V2.64453L10.5381 3.1084C10.7093 3.19442 10.8752 3.28868 11.0352 3.39062L11.5176 3.21777C12.4255 2.89123 13.4455 3.25736 13.9365 4.08887L14.415 4.89941C14.9095 5.73718 14.7226 6.80496 13.9668 7.4209L13.9658 7.42188L13.584 7.73145C13.5886 7.81996 13.5938 7.90941 13.5938 8L13.584 8.2666L13.9668 8.5791C14.7226 9.19504 14.9095 10.2628 14.415 11.1006L13.9365 11.9111C13.4455 12.7426 12.4255 13.1088 11.5176 12.7822L11.5166 12.7812L11.0361 12.6074C10.8756 12.7096 10.7096 12.8046 10.5381 12.8906L10.457 13.3555V13.3564C10.2889 14.3074 9.46196 14.9999 8.49707 15H7.49316C6.52824 14.9999 5.70029 14.3075 5.53223 13.3564L5.44922 12.8896C5.27817 12.8037 5.11231 12.7094 4.95215 12.6074L4.47363 12.7812L4.47266 12.7822C3.56484 13.1086 2.54377 12.7428 2.05273 11.9111L1.57422 11.1006C1.08008 10.263 1.26739 9.19495 2.02246 8.5791L2.40527 8.2666L2.39648 8C2.39648 7.91007 2.40082 7.82093 2.40527 7.73242L2.02344 7.42188V7.4209C1.26792 6.80511 1.07996 5.73722 1.57422 4.89941L2.05273 4.08887C2.54377 3.25721 3.56484 2.89135 4.47266 3.21777L4.95312 3.39062C5.11275 3.28889 5.27852 3.19522 5.44922 3.10938L5.53223 2.64355C5.70029 1.69251 6.52824 1.00012 7.49316 1H8.49707ZM7.49316 2.5C7.2552 2.50012 7.05118 2.67092 7.00977 2.9043V2.90527L6.85938 3.75586L6.78711 4.16211L6.40527 4.31934C6.08417 4.45107 5.78305 4.62309 5.50781 4.82812L5.18457 5.06836L4.80566 4.93262L3.96484 4.62988C3.73213 4.5463 3.46812 4.64192 3.34473 4.85059L2.86621 5.66113C2.74684 5.86342 2.79268 6.11275 2.96973 6.25781L3.65918 6.81836L3.98242 7.08203L3.92871 7.49609C3.90725 7.66238 3.89649 7.83067 3.89648 8C3.89648 8.16873 3.90728 8.33658 3.92871 8.50293L3.98242 8.91602L3.65918 9.17969L2.9707 9.74121C2.79296 9.88617 2.74666 10.1363 2.86621 10.3389L3.34473 11.1494C3.45264 11.3319 3.66809 11.4281 3.87598 11.3936L3.96484 11.3701L4.80371 11.0674L5.18262 10.9297L5.50684 11.1709C5.78156 11.3757 6.08307 11.5475 6.40527 11.6797L6.78711 11.8369L6.85938 12.2432L7.00977 13.0947V13.0957C7.05118 13.3291 7.2552 13.4999 7.49316 13.5H8.49707C8.73515 13.4999 8.93823 13.3283 8.97949 13.0947L9.12891 12.2441L9.20117 11.8369L9.58301 11.6797C9.90514 11.5476 10.2073 11.3759 10.4824 11.1709L10.8057 10.9297L11.1855 11.0674L12.0244 11.3701C12.2569 11.4538 12.5209 11.3581 12.6445 11.1494L13.123 10.3389C13.2428 10.136 13.1974 9.88609 13.0195 9.74121L12.3301 9.17969L12.0059 8.91699L12.0596 8.50293C12.0813 8.33401 12.0938 8.16649 12.0938 8C12.0937 7.83292 12.0814 7.66493 12.0596 7.49609L12.0059 7.08203L12.3301 6.81836L13.0195 6.25781C13.197 6.11288 13.2427 5.86379 13.123 5.66113L12.6445 4.85059C12.5209 4.64195 12.2579 4.54623 12.0254 4.62988L11.1836 4.93262L10.8047 5.06836L10.4814 4.82812C10.2059 4.62293 9.90487 4.4509 9.58398 4.31934L9.20117 4.16211L9.12891 3.75488L8.97949 2.90527L8.95703 2.82031C8.88716 2.63113 8.70536 2.5001 8.49707 2.5H7.49316ZM8 5.5C9.38071 5.5 10.5 6.61929 10.5 8C10.5 9.38071 9.38071 10.5 8 10.5C6.61929 10.5 5.5 9.38071 5.5 8C5.5 6.61929 6.61929 5.5 8 5.5ZM8 7C7.44772 7 7 7.44772 7 8C7 8.55228 7.44772 9 8 9C8.55228 9 9 8.55228 9 8C9 7.44772 8.55228 7 8 7Z"
    fill="currentColor"
  />
</svg>

<svg xmlns="http://www.w3.org/2000/svg" width="16" height="16" fill="none" data-fui-icon="true" viewBox="0 0 16 16"><path fill="currentColor" d="M8.497 1a1.99 1.99 0 0 1 1.96 1.644l.081.464q.257.129.497.283l.483-.173a2.02 2.02 0 0 1 2.419.87l.478.811a1.96 1.96 0 0 1-.448 2.522h-.001l-.382.31q.009.133.01.269l-.01.267.383.312a1.96 1.96 0 0 1 .448 2.522l-.478.81a2.02 2.02 0 0 1-2.42.871l-.48-.175q-.241.155-.499.284l-.081.464v.001A1.99 1.99 0 0 1 8.497 15H7.493a1.99 1.99 0 0 1-1.96-1.644l-.084-.466a6 6 0 0 1-.497-.283l-.478.174-.001.001a2.02 2.02 0 0 1-2.42-.87l-.479-.811a1.96 1.96 0 0 1 .448-2.522l.383-.312L2.396 8q.001-.135.01-.268l-.383-.31V7.42a1.96 1.96 0 0 1-.449-2.522l.479-.81a2.02 2.02 0 0 1 2.42-.871l.48.173q.24-.153.496-.282l.083-.465A1.99 1.99 0 0 1 7.493 1zM7.493 2.5a.49.49 0 0 0-.483.404v.001l-.15.85-.073.407-.382.157a4.1 4.1 0 0 0-.897.51l-.323.24-.38-.136-.84-.303a.52.52 0 0 0-.62.22l-.479.811a.46.46 0 0 0 .104.597l.69.56.322.264-.053.414a4 4 0 0 0 0 1.007l.053.413-.323.264-.688.561a.46.46 0 0 0-.105.598l.479.81a.52.52 0 0 0 .531.245l.089-.024.839-.303.379-.137.324.24q.414.31.898.51l.382.157.072.406.15.852a.49.49 0 0 0 .484.405h1.004a.49.49 0 0 0 .482-.405l.15-.85.072-.408.382-.157q.484-.2.9-.51l.323-.24.38.137.838.303a.52.52 0 0 0 .62-.22l.479-.811a.46.46 0 0 0-.103-.598l-.69-.561-.324-.263.054-.414q.033-.254.034-.503-.001-.25-.034-.504l-.054-.414.324-.264.69-.56a.46.46 0 0 0 .103-.597l-.478-.81a.52.52 0 0 0-.62-.221l-.841.303-.38.135-.323-.24a4 4 0 0 0-.897-.509l-.383-.157-.072-.407-.15-.85-.022-.085a.49.49 0 0 0-.46-.32zM8 5.5a2.5 2.5 0 1 1 0 5 2.5 2.5 0 0 1 0-5M8 7a1 1 0 1 0 0 2 1 1 0 0 0 0-2"/></svg>
